X:036 
T:Con O'Flynn's Jig*
B:CRE5.030 (gan ainm)
F:file ID: cre.5/036con_of
N:In CRE, the anacrusis and measures 9 and 13 contain "quadruplets"
(e.g. |(4fedf|) that don't play back properly. I've taken the liberty
of simplifying the notation accordingly. (I donÃÂÃÂ¢ÃÂ¢ÃÂÃÂ¬ÃÂ¢ÃÂÃÂ¢t know who would play
the quadruplets anyway!)
M:6/8
Q:160
R:jig
K:G
a/g/e/d/|:Bgg bgg|bgg fdc|AFF cFF|AFF cFF|
Bgg bgg|bgg fdc|AFF AGc|1 AGG G2A:|2 AGG G2||
|:e|fe/d/f ed/c/e|dcA cAG| AFF cFF|AFF cFF|
fe/d/f ed/c/e |dcA cAG|AFF AGc|1 AGG G2:|\
[2 AGG G3 ||

%%%

